X: 7760
T: Comb Your Hair And Curl It
R: slip jig
M: 9/8
K: Edorian
BE EF GA|(3Bcd ec d2|BE EF GA|(3BcB AG FD:|
ge ed eg|fd dc d2|ge ed ec|(3BcB AG FD:|
B2E E2F G2A|B2e ece dBA|B2E E2F G2A|B=cB A2G FED:|
g2e efe e2f|~g3 efg afd|g2e efe e2c|d2B ABG FED:|

